!!!OTL: 1781. Das Taubenliedchen.
!!!ARE: Europa, Mitteleuropa, Deutschland, Altenburg
!!!SCT: E1781
!!!TXL: @@DE
!!!YEM: Copyright 1995, estate of Helmut Schaffrath.
**kern	**text
*ICvox	*
*M3/4	*
*k[b-]	*
*F:	*
!LO:TX:a:t=Ziemlich ruhig.	!
{8f	Al-
8g	-les
=1	=1
4a	was
4a	in
8b-	Lüf-
8b-	-ten
=2	=2
4ee	ſchwe-
4cc}	-bet,
{8ff	kommt
8dd	von
=3	=3
4.cc	ei-
8b-	-ner
8a	Tau-
8f	-be
=4	=4
2g}	her,
{8f	Tau-
8a	-ben
=5	=5
4.cc	ſind
8b-/	gar
8a	ſchö-
8f	-ne
=6	=6
(4a	Thier',
4g)}	.
{8f	Tau-
8a	-ben
=7	=7
4.cc	die
8b-/	ge-
8a	-fal-
8f	-len
=8	=8
(4a	mir.
4g)	.
4r}	.
=9	=9
{8cc	Tau-
8cc	-ben
8ff	die
8dd	ge-
8dd	-fal-
8cc	-len,
=10	=10
8cc	Tau-
8cc	-ben
8ff	die
8dd	ge-
8dd	-fal-
8cc}	-len,
=11	=11
{8dd	die
16ccL	ge-
16b-J	.
(4a	-fal-
12ccL)	.
12b-J	.
12g	-len
=12	=12
(>4g	mir.
4f)}	.
==	==
!!!AGN: Scherz - Lied
!!!ONB: ESAC (Essen Associative Code) Database: ERK3
!!!AMT: simple triple
!!!AIN: vox
!!!EED: Helmut Schaffrath
!!!EEV: 1.0
!!!RDF**kern: >= above
!!!GTL: Vermischter Inhalt.
!!!URL-scan: https://rosdok.uni-rostock.de/mcrviewer/recordIdentifier/rosdok_ppn745177999/iview2/phys_0565.iview2?x=-4.404412318551749&y=1146.3856906825677&scale=0.6456904138606623&rotation=0&layout=singlePageLayout
!!!ENC: Anna Maria Matuszewska
!!!EEV: 2025/08/01
*-	*-
